packages/kaspersky-hexa-ui-icons/src/iconsSVGs/24/CollapseAll.svg

<svg width="24" height="24" viewBox="0 0 24 24" fill="none" xmlns="http://www.w3.org/2000/svg">
<path d="M13 2C13 1.44772 12.5523 1 12 1C11.4477 1 11 1.44772 11 2V6.58579L8.70711 4.29289C8.31658 3.90237 7.68342 3.90237 7.29289 4.29289C6.90237 4.68342 6.90237 5.31658 7.29289 5.70711L11.2929 9.70711C11.6834 10.0976 12.3166 10.0976 12.7071 9.70711L16.7071 5.70711C17.0976 5.31658 17.0976 4.68342 16.7071 4.29289C16.3166 3.90237 15.6834 3.90237 15.2929 4.29289L13 6.58579V2Z" fill="black"/>
<path d="M5 12C5 12.5523 4.55228 13 4 13C3.44772 13 3 12.5523 3 12C3 11.4477 3.44772 11 4 11C4.55228 11 5 11.4477 5 12Z" fill="black"/>
<path d="M20 13C20.5523 13 21 12.5523 21 12C21 11.4477 20.5523 11 20 11C19.4477 11 19 11.4477 19 12C19 12.5523 19.4477 13 20 13Z" fill="black"/>
<path d="M9 12C9 12.5523 8.55228 13 8 13C7.44772 13 7 12.5523 7 12C7 11.4477 7.44772 11 8 11C8.55228 11 9 11.4477 9 12Z" fill="black"/>
<path d="M12 13C12.5523 13 13 12.5523 13 12C13 11.4477 12.5523 11 12 11C11.4477 11 11 11.4477 11 12C11 12.5523 11.4477 13 12 13Z" fill="black"/>
<path d="M17 12C17 12.5523 16.5523 13 16 13C15.4477 13 15 12.5523 15 12C15 11.4477 15.4477 11 16 11C16.5523 11 17 11.4477 17 12Z" fill="black"/>
<path d="M13 17.4142L15.2929 19.7071C15.6834 20.0976 16.3166 20.0976 16.7071 19.7071C17.0976 19.3166 17.0976 18.6834 16.7071 18.2929L12.7071 14.2929C12.3166 13.9024 11.6834 13.9024 11.2929 14.2929L7.29289 18.2929C6.90237 18.6834 6.90237 19.3166 7.29289 19.7071C7.68342 20.0976 8.31658 20.0976 8.70711 19.7071L11 17.4142V22C11 22.5523 11.4477 23 12 23C12.5523 23 13 22.5523 13 22V17.4142Z" fill="black"/>
</svg>

<svg xmlns="http://www.w3.org/2000/svg" width="24" height="24" fill="none" viewBox="0 0 24 24"><path fill="#000" fill-rule="evenodd" d="M13 2c0-.5523-.4477-1-1-1s-1 .4477-1 1v4.5858L8.7071 4.2929c-.3905-.3905-1.0237-.3905-1.4142 0s-.3905 1.0237 0 1.4142l4 4c.3905.3905 1.0237.3905 1.4142 0l4-4c.3905-.3905.3905-1.0237 0-1.4142s-1.0237-.3905-1.4142 0L13 6.5858zM8 13c.5523 0 1-.4477 1-1s-.4477-1-1-1-1 .4477-1 1 .4477 1 1 1m5-1c0 .5523-.4477 1-1 1s-1-.4477-1-1 .4477-1 1-1 1 .4477 1 1m-8 0c0 .5523-.4477 1-1 1s-1-.4477-1-1 .4477-1 1-1 1 .4477 1 1m11 1c.5523 0 1-.4477 1-1s-.4477-1-1-1-1 .4477-1 1 .4477 1 1 1m4 0c.5523 0 1-.4477 1-1s-.4477-1-1-1-1 .4477-1 1 .4477 1 1 1m-7 4.4142 2.2929 2.2929c.3905.3905 1.0237.3905 1.4142 0s.3905-1.0237 0-1.4142l-4-4c-.3905-.3905-1.0237-.3905-1.4142 0l-4 4c-.3905.3905-.3905 1.0237 0 1.4142s1.0237.3905 1.4142 0L11 17.4142V22c0 .5523.4477 1 1 1s1-.4477 1-1z"/></svg>
